X: 1
T: Kyrkpolskan
C: Trad.
R: polska
S: http://www.nyckelharpa.org/archive/written-music/american-allspel-list/ 2022/10/2
Z: 2022 John Chambers <jc:trillian.mit.edu>
M: 3/4
L: 1/16
Q: 1/4=80
K: F
|:\
C7/2d/ c4 A2 | A2GA B4 G4 | C7/e/ e2d2 c2B2 | B2AB d2c2 A2F2 |
C7/2d/ c4 A2 | A2GA B4 G4 | C7/e/ e2d2 c2B2 | C2EG F8 :|
|:\
A3c (cf3) f3(f | e3)B Bd3 d4 | (CE)GB d2c2 B2G2 | (CF)Ac d2c2 A2F2 |
A3c (cf3) f3(f | e3)B Bd3 d4 | (CE)GB d2c2 B2G2 | C2EG F8 :|
